incomeartour/img/countries/europe/albania.svg

<svg width="26" height="25" viewBox="0 0 26 25" fill="none" xmlns="http://www.w3.org/2000/svg">
<g clip-path="url(#clip0_192:4989)">
<path d="M24.6363 20.6893H0.498437C0.2604 20.6893 0.0673828 20.4963 0.0673828 20.2583V4.74111C0.0673828 4.50308 0.2604 4.31006 0.498437 4.31006H24.6363C24.8744 4.31006 25.0674 4.50308 25.0674 4.74111V20.2583C25.0673 20.4964 24.8743 20.6893 24.6363 20.6893Z" fill="#FF4B55"/>
<path d="M17.2823 14.5405C17.0465 14.3923 16.9051 14.628 16.9051 14.628L16.2181 14.7088L16.5616 14.4192C16.8108 14.4394 16.8445 14.3654 16.9118 14.2643C16.9791 14.1633 17.262 14.2105 17.262 14.2105C17.2216 13.9007 16.8309 14.0758 16.8309 14.0758C16.5144 14.0421 16.4605 14.298 16.4605 14.298L15.9689 14.6752L14.8869 14.3546C14.9991 14.2309 15.0872 14.1091 15.1001 14.0353C15.1216 13.9115 14.3009 13.7031 14.0494 13.4427C13.798 13.1822 13.7082 12.7692 13.825 12.6614C13.9417 12.5536 14.0405 12.8589 14.1662 13.1104C14.2919 13.3618 14.5254 13.5594 14.6781 13.4337C14.8307 13.308 14.5164 13.1194 14.3727 12.85C14.2291 12.5806 14.4805 12.4818 14.5973 12.5087C14.714 12.5357 14.7858 13.0925 15.0642 13.3798C15.3426 13.6671 15.594 13.6132 15.621 13.4336C15.6479 13.254 15.1616 13.0327 15.0627 12.8801C14.9639 12.7274 14.9385 12.4279 15.1001 12.4189C15.2618 12.4099 15.8544 13.2932 16.3574 13.6312C16.9051 13.9994 17.3451 13.5683 17.2733 13.3888C17.2015 13.2091 16.8692 13.281 16.4831 13.1822C16.097 13.0834 15.7018 12.5625 15.5851 12.2752C15.4683 11.9879 15.5649 11.9879 15.6323 12.0148C15.6996 12.0418 15.9555 12.4189 16.4472 12.7085C16.9388 12.9981 17.2823 12.722 17.3227 12.6547C17.3632 12.5873 17.5185 12.285 17.0129 12.3561C16.4383 12.4369 16.1104 12.0957 15.8747 11.9139C15.639 11.732 15.5447 11.4828 15.6525 11.3818C15.7602 11.2807 16.1149 11.7365 16.6537 11.8802C17.1486 12.0121 17.3496 11.7993 17.3361 11.604C17.3226 11.4087 17.2081 11.4895 16.6491 11.4357C16.0902 11.3818 15.6995 10.8565 15.6793 10.8228C15.6591 10.7891 15.6659 10.6005 15.9487 10.7824C16.2316 10.9642 16.7367 11.072 17.033 11.0585C17.3294 11.045 17.39 10.6476 17.2486 10.5803C17.1072 10.513 17.0735 10.614 16.7502 10.6813C16.4269 10.7487 15.8208 10.4187 15.6726 10.2638C15.5244 10.1088 15.6861 10.0078 15.7601 10.0213C15.8342 10.0347 16.3191 10.3176 16.7502 10.3041C17.1812 10.2907 17.3631 9.8933 17.3496 9.77206C17.3361 9.65082 17.2149 9.54979 17.033 9.67103C16.8512 9.79227 16.6087 9.93368 16.2047 9.86635C15.8006 9.79901 15.612 9.52958 15.6659 9.4286C15.7198 9.32758 16.1104 9.50267 16.73 9.43534C17.3496 9.36801 17.3765 8.82245 17.3159 8.71469C17.2554 8.60692 17.1072 8.64062 16.8984 8.83593C16.6896 9.03124 16.2855 9.07167 15.969 9.07167C15.6524 9.07167 15.6457 8.91679 15.6929 8.80902C15.74 8.70126 16.0767 8.72821 16.5482 8.58002C17.0196 8.43188 17.289 8.05468 17.3631 7.81899C17.4372 7.58329 17.2554 7.40141 17.1813 7.40141C17.1072 7.40141 17.1543 7.29365 16.8311 7.75834C16.5078 8.22304 15.6592 8.40487 15.6592 8.40487C15.5986 8.29037 15.5043 8.24999 15.5043 8.24999C14.9319 8.36449 14.2413 8.85878 14.2413 8.85878C14.2413 8.85878 14.3631 9.24921 14.211 9.5535C14.0151 9.9452 13.3438 9.70053 13.5264 9.08192C13.6784 8.56679 14.2667 8.25536 14.7638 8.19955C15.2607 8.14379 15.2861 7.95614 15.2861 7.95614C15.2861 7.95614 14.7642 8.12607 14.7549 7.89281C14.8626 7.91469 15.0215 7.92421 15.2911 7.90033C15.6918 7.86488 15.9149 7.58085 15.7374 7.52001C15.5599 7.45917 15.636 7.64174 15.3317 7.78373C15.1147 7.885 14.8869 7.8394 14.7729 7.80478C14.8782 7.5748 15.3216 7.69242 15.3216 7.69242C15.3266 7.29179 14.7951 7.4351 14.7951 7.4351C14.5616 6.93217 13.1966 7.51591 13.1966 7.51591L13.5199 7.77631C12.7297 8.2163 12.568 9.05141 12.568 9.05141C12.568 9.05141 12.4064 8.2163 11.6161 7.77626L11.9394 7.51586C11.9394 7.51586 10.5744 6.93212 10.341 7.43505C10.341 7.43505 9.80932 7.29179 9.81445 7.69238C9.81445 7.69238 10.2578 7.57475 10.3632 7.80473C10.2492 7.8394 10.0214 7.88495 9.80434 7.78368C9.50009 7.64164 9.57617 7.45917 9.39863 7.51996C9.22114 7.5808 9.44428 7.86479 9.84492 7.90028C10.1146 7.92416 10.2734 7.91469 10.3812 7.89277C10.3719 8.12602 9.85 7.9561 9.85 7.9561C9.85 7.9561 9.87539 8.14369 10.3723 8.1995C10.8693 8.25531 11.4577 8.56674 11.6097 9.08187C11.7922 9.70053 11.1209 9.9451 10.9251 9.55346C10.7729 9.24921 10.8947 8.85873 10.8947 8.85873C10.8947 8.85873 10.2042 8.36444 9.63173 8.24994C9.63173 8.24994 9.53745 8.29037 9.47685 8.40482C9.47685 8.40482 8.62827 8.22299 8.30498 7.75829C7.98169 7.2936 8.02886 7.40136 7.95478 7.40136C7.88071 7.40136 7.69888 7.5832 7.77295 7.81894C7.84702 8.05468 8.11641 8.43183 8.58789 8.57997C9.05937 8.72812 9.39609 8.70121 9.44321 8.80897C9.49038 8.91674 9.48364 9.07162 9.16709 9.07162C8.85053 9.07162 8.44643 9.03119 8.23769 8.83588C8.0289 8.64057 7.88076 8.60687 7.82012 8.71464C7.75952 8.8224 7.78643 9.36791 8.40605 9.43529C9.02568 9.50263 9.4163 9.32753 9.47016 9.42855C9.52402 9.52958 9.33545 9.79896 8.93139 9.8663C8.52729 9.93363 8.28486 9.79222 8.10303 9.67098C7.92119 9.54974 7.79995 9.65077 7.78647 9.77201C7.773 9.89325 7.95483 10.2906 8.38589 10.3041C8.81694 10.3176 9.30185 10.0347 9.37592 10.0212C9.45 10.0078 9.61167 10.1088 9.46347 10.2637C9.31533 10.4185 8.70918 10.7486 8.38589 10.6812C8.0626 10.6139 8.02895 10.5129 7.8875 10.5802C7.74604 10.6475 7.80669 11.0449 8.10303 11.0584C8.39936 11.0719 8.90449 10.9641 9.18735 10.7823C9.47021 10.6004 9.47695 10.789 9.45673 10.8227C9.43652 10.8564 9.0459 11.3817 8.48691 11.4356C7.92793 11.4894 7.81343 11.4086 7.79995 11.6039C7.78647 11.7993 7.9875 12.012 8.48242 11.8801C9.02119 11.7364 9.37597 11.2806 9.48369 11.3817C9.59145 11.4827 9.49716 11.7319 9.26142 11.9138C9.02568 12.0956 8.6979 12.4368 8.12324 12.356C7.61768 12.2849 7.77305 12.5872 7.81343 12.6546C7.85381 12.7219 8.19731 12.998 8.68896 12.7084C9.18061 12.4188 9.43652 12.0417 9.5039 12.0147C9.57124 11.9878 9.66782 11.9878 9.55107 12.2751C9.43432 12.5625 9.03921 13.0833 8.65307 13.1821C8.26694 13.2809 7.93467 13.209 7.86284 13.3887C7.79102 13.5682 8.231 13.9992 8.77881 13.6311C9.28173 13.2931 9.87436 12.4098 10.036 12.4188C10.1977 12.4277 10.1722 12.7273 10.0734 12.8799C9.9746 13.0326 9.48823 13.2539 9.51518 13.4335C9.54213 13.6131 9.7935 13.6669 10.0719 13.3796C10.3503 13.0923 10.4221 12.5355 10.5389 12.5086C10.6556 12.4816 10.9071 12.5805 10.7634 12.8498C10.6197 13.1192 10.3054 13.3078 10.4581 13.4335C10.6107 13.5592 10.8442 13.3617 10.97 13.1102C11.0956 12.8588 11.1944 12.5535 11.3112 12.6613C11.4279 12.769 11.3381 13.1821 11.0867 13.4425C10.8352 13.7029 10.0144 13.9113 10.036 14.0352C10.0489 14.109 10.137 14.2307 10.2492 14.3544L9.16723 14.675L8.67558 14.2978C8.67558 14.2978 8.62173 14.0419 8.30517 14.0756C8.30517 14.0756 7.91455 13.9005 7.87412 14.2103C7.87412 14.2103 8.15698 14.1631 8.22432 14.2641C8.29165 14.3652 8.32534 14.4392 8.57451 14.419L8.91792 14.7087L8.23096 14.6279C8.23096 14.6279 8.0895 14.3921 7.85381 14.5403C7.85381 14.5403 7.55747 14.446 7.4834 14.7289C7.4834 14.7289 7.73931 14.6817 7.80669 14.7154C7.80669 14.7154 7.90771 14.9444 8.231 14.8097L8.91123 14.8434L8.52734 15.032C8.52734 15.032 8.04243 14.8771 8.06265 15.2811C8.06265 15.2811 7.92119 15.4428 8.04917 15.6044C8.04917 15.6044 8.07612 15.4293 8.20405 15.3553C8.20405 15.3553 8.45322 15.4563 8.61489 15.1599L9.10654 14.8636L9.59145 15.0993C9.59145 15.0993 9.57797 15.362 9.93491 15.2542C9.93491 15.2542 10.0561 15.335 10.0898 15.4428C10.0898 15.4428 10.2447 15.2744 9.9955 15.0791C9.9955 15.0791 9.93491 14.8501 9.63857 14.9377L9.36245 14.7962L10.3842 14.493C10.5611 14.6615 10.7519 14.7996 10.8187 14.7765C10.9506 14.7308 11.052 14.594 11.1433 14.4012C11.2345 14.2085 11.6453 13.5392 11.8481 13.5443C12.051 13.5494 12.1423 13.7116 12.0915 14.0007C12.0409 14.2897 11.6455 14.8434 11.3896 14.9579C11.1337 15.0724 11.0933 15.1263 10.8575 15.1061C10.6218 15.0859 10.541 15.1869 10.5949 15.3216C10.6487 15.4563 10.9139 15.542 11.1741 15.4428C11.4569 15.3351 11.5647 15.1869 11.6725 15.2745C11.7802 15.362 11.558 15.6786 11.2549 15.7729C10.9518 15.8672 10.7228 15.8066 10.77 15.9951C10.8171 16.1837 11.1404 16.1972 11.3492 16.076C11.558 15.9547 11.7936 15.618 11.8543 15.7258C11.9149 15.8335 11.8745 16.1096 11.6725 16.2578C11.4704 16.406 11.2406 16.3188 11.1943 16.4531C11.1269 16.6485 11.3626 16.7764 11.5445 16.7023C11.7263 16.6282 11.9351 16.3992 12.0294 16.1972C12.1237 15.9951 12.2988 16.1702 12.2449 16.3588C12.1911 16.5474 12.2359 16.7023 11.8497 16.9986L12.5682 18.1031L13.2866 16.9986C12.9004 16.7022 12.9454 16.5473 12.8914 16.3588C12.8375 16.1702 13.0126 15.9951 13.1069 16.1971C13.2012 16.3992 13.41 16.6282 13.5918 16.7023C13.7737 16.7763 14.0094 16.6484 13.942 16.4531C13.8957 16.3188 13.6659 16.4059 13.4639 16.2578C13.2618 16.1096 13.2214 15.8335 13.282 15.7257C13.3426 15.6179 13.5784 15.9547 13.7871 16.0759C13.9959 16.1971 14.3192 16.1837 14.3663 15.9951C14.4135 15.8065 14.1845 15.8671 13.8814 15.7728C13.5784 15.6785 13.3561 15.362 13.4639 15.2744C13.5716 15.1869 13.6794 15.335 13.9622 15.4428C14.2224 15.5419 14.4876 15.4563 14.5414 15.3216C14.5953 15.1868 14.5145 15.0858 14.2788 15.106C14.0431 15.1262 14.0027 15.0723 13.7467 14.9579C13.4908 14.8434 13.0955 14.2897 13.0448 14.0007C12.994 13.7116 13.0853 13.5493 13.2882 13.5443C13.491 13.5391 13.9017 14.2085 13.9931 14.4012C14.0843 14.5939 14.1857 14.7308 14.3176 14.7765C14.3844 14.7996 14.5753 14.6615 14.7521 14.493L15.7739 14.7962L15.4977 14.9377C15.2014 14.8501 15.1408 15.0791 15.1408 15.0791C14.8916 15.2744 15.0465 15.4428 15.0465 15.4428C15.0802 15.335 15.2014 15.2542 15.2014 15.2542C15.5583 15.362 15.5449 15.0993 15.5449 15.0993L16.0298 14.8636L16.5214 15.1599C16.683 15.4563 16.9323 15.3553 16.9323 15.3553C17.0602 15.4293 17.0871 15.6044 17.0871 15.6044C17.2151 15.4428 17.0737 15.2811 17.0737 15.2811C17.0939 14.8771 16.609 15.032 16.609 15.032L16.2249 14.8435L16.9051 14.8098C17.2284 14.9446 17.3294 14.7156 17.3294 14.7156C17.3968 14.6819 17.6527 14.729 17.6527 14.729C17.5786 14.4462 17.2823 14.5405 17.2823 14.5405Z" fill="#464655"/>
</g>
<defs>
<clipPath id="clip0_192:4989">
<rect width="25" height="25" fill="white" transform="translate(0.0673828 -0.000244141)"/>
</clipPath>
</defs>
</svg>

<svg width="26" height="25" fill="none" xmlns="http://www.w3.org/2000/svg"><g clip-path="url(#clip0_192:4989)"><path d="M24.636 20.69H.498a.431.431 0 01-.43-.432V4.741a.43.43 0 01.43-.43h24.138a.43.43 0 01.431.43v15.517a.431.431 0 01-.43.431z" fill="#FF4B55"/><path d="M17.282 14.54c-.235-.148-.377.088-.377.088l-.687.08.344-.289c.249.02.282-.054.35-.155.067-.1.35-.053.35-.053-.04-.31-.431-.135-.431-.135-.317-.034-.37.222-.37.222l-.492.377-1.082-.32c.112-.124.2-.246.213-.32.022-.123-.8-.332-1.05-.592-.252-.26-.342-.674-.225-.782.117-.107.216.198.341.45.126.25.36.448.512.323.153-.126-.162-.315-.305-.584-.144-.27.107-.368.224-.341.117.027.189.583.467.87.279.288.53.234.557.055.027-.18-.46-.401-.558-.554-.1-.153-.125-.452.037-.461.162-.01.754.874 1.257 1.212.548.368.988-.063.916-.242-.072-.18-.404-.108-.79-.207-.386-.099-.781-.62-.898-.907-.117-.287-.02-.287.047-.26.068.027.324.404.815.694.492.29.835.013.876-.054.04-.068.195-.37-.31-.299-.575.08-.903-.26-1.138-.442-.236-.182-.33-.431-.223-.532.108-.101.463.354 1.002.498.495.132.696-.08.682-.276-.013-.195-.128-.114-.687-.168-.559-.054-.95-.58-.97-.613-.02-.034-.013-.223.27-.04.283.181.788.289 1.084.276.296-.014.357-.411.216-.479-.142-.067-.175.034-.499.101-.323.068-.93-.262-1.077-.417-.149-.155.013-.256.087-.243.074.014.56.297.99.283.431-.013.613-.41.6-.532-.014-.121-.135-.222-.317-.101s-.424.263-.828.195c-.404-.067-.593-.336-.54-.437.055-.101.445.074 1.065.006.62-.067.646-.613.586-.72-.06-.108-.209-.074-.418.12-.208.196-.613.237-.929.237-.317 0-.323-.155-.276-.263.047-.108.384-.08.855-.229.472-.148.741-.525.815-.761.074-.236-.108-.418-.182-.418s-.027-.107-.35.357c-.323.465-1.172.647-1.172.647-.06-.115-.155-.155-.155-.155-.572.114-1.263.609-1.263.609s.122.39-.03.694c-.196.392-.867.148-.685-.471.152-.515.74-.827 1.238-.882.497-.056.522-.244.522-.244s-.522.17-.531-.063c.108.022.266.031.536.007.4-.035.624-.32.446-.38-.177-.06-.101.122-.405.264-.217.101-.445.055-.56.02.106-.23.55-.112.55-.112.005-.4-.527-.257-.527-.257-.233-.503-1.598.08-1.598.08l.323.261c-.79.44-.952 1.275-.952 1.275s-.162-.835-.952-1.275l.323-.26s-1.365-.584-1.598-.08c0 0-.532-.144-.527.256 0 0 .444-.117.55.113a.8.8 0 01-.56-.021c-.304-.142-.228-.325-.405-.264-.178.06.045.345.446.38.27.024.428.015.536-.007-.01.233-.531.063-.531.063s.025.188.522.244c.497.055 1.086.367 1.238.882.182.619-.49.863-.685.471-.152-.304-.03-.694-.03-.694s-.69-.495-1.263-.61c0 0-.095.041-.155.156 0 0-.849-.182-1.172-.647-.323-.464-.276-.357-.35-.357-.074 0-.256.182-.182.418.074.236.343.613.815.761.471.148.808.121.855.229.047.108.04.263-.276.263s-.72-.04-.93-.236c-.208-.195-.356-.23-.417-.121-.06.107-.034.653.586.72.62.068 1.01-.107 1.064-.006.054.1-.135.37-.539.437-.404.068-.646-.074-.828-.195-.182-.121-.303-.02-.317.101-.013.121.169.519.6.532.43.014.916-.27.99-.283.074-.013.236.088.087.243-.148.155-.754.485-1.077.417-.323-.067-.357-.168-.498-.1-.142.067-.081.464.215.477.296.014.801-.094 1.084-.276.283-.182.29.007.27.04-.02.034-.411.56-.97.614-.56.053-.674-.027-.687.168-.014.195.188.408.682.276.54-.144.894-.6 1.002-.498.107.1.013.35-.223.532-.235.182-.563.523-1.138.442-.505-.071-.35.231-.31.299.04.067.384.343.876.053.492-.29.748-.666.815-.693.067-.027.164-.027.047.26-.117.287-.512.808-.898.907-.386.099-.718.027-.79.207-.072.18.368.61.916.242.503-.338 1.095-1.221 1.257-1.212.162.009.136.308.037.46-.098.154-.585.375-.558.555.027.18.278.233.557-.054.278-.288.35-.845.467-.871.117-.027.368.072.224.34-.143.27-.458.459-.305.585.153.125.386-.072.512-.324.126-.251.224-.556.341-.449.117.108.027.521-.224.782-.252.26-1.073.468-1.051.592.013.074.101.196.213.32l-1.082.32-.491-.377s-.054-.256-.37-.222c0 0-.391-.176-.432.134 0 0 .283-.047.35.054.068.101.101.175.35.155l.344.29-.687-.081s-.142-.236-.377-.088c0 0-.297-.094-.37.189 0 0 .255-.047.323-.014 0 0 .1.23.424.095l.68.033-.384.189s-.485-.155-.464.25c0 0-.142.16-.014.322 0 0 .027-.175.155-.249 0 0 .25.101.41-.195l.493-.296.484.235s-.013.263.344.155c0 0 .121.081.155.189 0 0 .155-.169-.095-.364 0 0-.06-.229-.356-.141l-.277-.142 1.022-.303c.177.168.368.307.435.284.132-.046.233-.183.324-.376.091-.192.502-.862.705-.857.203.005.294.168.243.457-.05.289-.445.842-.701.957-.256.114-.297.168-.533.148-.235-.02-.316.08-.262.216.054.134.319.22.58.12.282-.107.39-.255.497-.168.108.088-.114.405-.417.499-.303.094-.532.034-.485.222.047.189.37.202.58.081.208-.121.444-.458.504-.35.06.107.02.384-.181.532-.203.148-.432.06-.479.195-.067.195.169.323.35.25.182-.075.391-.304.485-.506.095-.202.27-.027.216.162-.054.188-.01.343-.395.64l.718 1.104.719-1.104c-.387-.297-.342-.452-.396-.64-.053-.189.122-.364.216-.162.094.202.303.431.485.505.182.074.417-.054.35-.249-.046-.134-.276-.047-.478-.195-.202-.148-.243-.424-.182-.532.06-.108.296.229.505.35.209.121.532.108.58-.08.046-.19-.183-.129-.486-.223-.303-.095-.525-.411-.417-.499.108-.087.215.061.498.169.26.099.526.013.58-.121.053-.135-.027-.236-.263-.216-.236.02-.276-.034-.532-.148-.256-.115-.652-.668-.702-.957-.051-.29.04-.452.243-.457.203-.005.614.665.705.857.091.193.193.33.325.376.066.023.257-.115.434-.284l1.022.303-.276.142c-.297-.088-.357.141-.357.141-.25.195-.095.364-.095.364.034-.108.155-.189.155-.189.357.108.344-.155.344-.155l.485-.235.491.296c.162.296.411.195.411.195.128.074.155.25.155.25.128-.162-.013-.324-.013-.324.02-.404-.465-.249-.465-.249l-.384-.188.68-.034c.323.135.424-.094.424-.094.068-.034.324.013.324.013-.074-.283-.37-.188-.37-.188z" fill="#464655"/></g><defs><clipPath id="clip0_192:4989"><path fill="#fff" transform="translate(.067)" d="M0 0h25v25H0z"/></clipPath></defs></svg>
